X: 4
T: O'Donnell Abu
Z: ceolachan
S: https://thesession.org/tunes/7309#setting22487
R: barndance
M: 4/4
L: 1/8
K: Dmaj
|: D2 EF/G/ A2- AF/A/ | f2 dB A/B/A/F/ G/A/G/F/ | E2- E>F GA/G/ FE | D2 D/E/F/G/ A3 F/E/ |
D2 FG AB/A/ F/G/A | f/g/f/e/ d>B AB/A/ GF | Ee e>d cABc |[1 d2 d>c d2 FE :|[2 d2 d>c dAde ||
|: f/g/a/g/ f/g/f/e/ dB AF/A/ | d2- dB AF DE/F/ | GD/G/ BG FD/F/ AF | E2- E>F E2 A/G/F/E/ |
D2 F/G/A AB/A/ FA | f3 d A2 A/G/F | Ee e>d cAGE |[1 D2 d>c d2 A/B/c/d/ :|[2 D2 d>d d4 |]
